packages/core/src/svgs/tokens/branded/ATA.svg

<svg width="24" height="24" viewBox="0 0 24 24" fill="none" xmlns="http://www.w3.org/2000/svg">
<path d="M17.0106 4.47868C16.2651 3.69081 15.3447 3.08932 14.3239 2.7228C13.303 2.3563 12.2103 2.23503 11.1339 2.36882C10.0575 2.50261 9.02775 2.88769 8.12769 3.49296C7.22763 4.09824 6.48253 4.90672 5.95263 5.85311L2.89763 11.2758C2.74145 11.5445 2.61025 11.8257 2.4978 12.1005L2.5103 12.1256C2.81642 13.4187 3.6973 16.4362 7.46451 16.8924C7.67068 16.9173 7.8581 16.9298 8.03926 16.9298C7.73734 16.9279 7.44116 16.847 7.18016 16.6953C6.91916 16.5435 6.7024 16.326 6.55146 16.0645C6.40049 15.803 6.32058 15.5066 6.31965 15.2047C6.31871 14.9027 6.39679 14.6057 6.54614 14.3434L10.7693 6.98391C10.9131 6.73401 11.2317 6.42163 11.4441 6.27794C12.4874 5.1534 14.2804 4.03512 17.0106 4.47868Z" fill="url(#paint0_linear_364_12629)"/>
<path d="M17.0104 4.47865C17.3914 4.87849 17.7662 5.33456 18.0599 5.85309L21.1212 11.2758C23.239 15.0368 21.3085 19.66 17.685 21.1906L16.8166 21.4342C19.4094 18.6665 18.8034 15.649 18.0786 14.3871C18.0497 14.3164 18.0164 14.2474 17.9788 14.1809L13.7742 6.94015C13.543 6.54685 13.1669 6.25982 12.7267 6.1407C12.2863 6.02156 11.8168 6.07979 11.4189 6.3029C12.0876 5.50709 12.9657 4.91442 13.9539 4.592C14.9421 4.26959 16.0009 4.23032 17.0104 4.47865Z" fill="url(#paint1_linear_364_12629)"/>
<path d="M16.8481 21.4153C19.4409 18.6478 18.8723 15.7802 18.154 14.512C18.6225 15.6241 17.7353 16.6862 16.4796 16.6862H7.62072C3.85353 16.2238 2.84769 13.5249 2.53531 12.2316L2.51033 12.0943C0.692312 16.5299 3.94099 21.684 8.93894 21.684H14.8615C15.655 21.684 16.2672 21.5404 16.842 21.4153H16.8481Z" fill="url(#paint2_linear_364_12629)"/>
<defs>
<linearGradient id="paint0_linear_364_12629" x1="14.6389" y1="3.05432" x2="3.46134" y2="19.2906" gradientUnits="userSpaceOnUse">
<stop stop-color="#FCCA02"/>
<stop offset="1" stop-color="#AB1414"/>
</linearGradient>
<linearGradient id="paint1_linear_364_12629" x1="6.58154" y1="2.32162" x2="13.8443" y2="22.6498" gradientUnits="userSpaceOnUse">
<stop offset="0.05" stop-color="#AA1215"/>
<stop offset="0.93" stop-color="#FDCB02"/>
</linearGradient>
<linearGradient id="paint2_linear_364_12629" x1="1.99803" y1="18.1732" x2="18.3476" y2="18.1732" gradientUnits="userSpaceOnUse">
<stop offset="0.16" stop-color="#FCCA02"/>
<stop offset="1" stop-color="#AB1414"/>
</linearGradient>
</defs>
</svg>

<svg xmlns="http://www.w3.org/2000/svg" width="24" height="24" fill="none" viewBox="0 0 24 24">
    <path fill="url(#ATA__a)" d="M17.01 4.479A6.917 6.917 0 0 0 5.954 5.853l-3.055 5.423c-.157.268-.288.55-.4.825l.012.025c.306 1.293 1.187 4.31 4.955 4.766.206.025.393.038.574.038a1.73 1.73 0 0 1-1.493-2.587l4.223-7.36c.144-.249.463-.561.675-.705 1.043-1.125 2.836-2.243 5.567-1.8"/>
    <path fill="url(#ATA__b)" d="M17.01 4.479c.381.4.756.856 1.05 1.374l3.061 5.423c2.118 3.76.188 8.384-3.436 9.915l-.868.243c2.592-2.768 1.986-5.785 1.262-7.047a2 2 0 0 0-.1-.206l-4.205-7.24a1.743 1.743 0 0 0-2.355-.638 5.57 5.57 0 0 1 5.591-1.824"/>
    <path fill="url(#ATA__c)" d="M16.848 21.415c2.593-2.767 2.024-5.635 1.306-6.903.468 1.112-.419 2.174-1.674 2.174H7.62c-3.766-.462-4.772-3.161-5.085-4.454l-.025-.138c-1.818 4.436 1.431 9.59 6.429 9.59h5.922c.794 0 1.406-.144 1.981-.269z"/>
    <defs>
        <linearGradient id="ATA__a" x1="14.639" x2="3.461" y1="3.054" y2="19.291" gradientUnits="userSpaceOnUse">
            <stop stop-color="#FCCA02"/>
            <stop offset="1" stop-color="#AB1414"/>
        </linearGradient>
        <linearGradient id="ATA__b" x1="6.582" x2="13.844" y1="2.322" y2="22.65" gradientUnits="userSpaceOnUse">
            <stop offset=".05" stop-color="#AA1215"/>
            <stop offset=".93" stop-color="#FDCB02"/>
        </linearGradient>
        <linearGradient id="ATA__c" x1="1.998" x2="18.348" y1="18.173" y2="18.173" gradientUnits="userSpaceOnUse">
            <stop offset=".16" stop-color="#FCCA02"/>
            <stop offset="1" stop-color="#AB1414"/>
        </linearGradient>
    </defs>
</svg>
